!!!OTL: 251. Volekh
!!!Genre:	Volekh
!!!Mode:	Minor
!!!Listening/dance:	dance
!!!:	*g:dor
!!!One_Mode:	no
**kern
*thru
*I"P1
*clefG2
*k[b-e-]
*g:dor
=5:|!|:
!LO:TX:a:i:t=G-raised-fourth
4.dd
8cc#X
12ddL
12cc#
12b-J
=6
8ddL
8cc#X
8b-
8aJ
4b-
=7
8cc#XL
8dd
8een
8ffJ
12ddL
12cc#
12b-J
=8
8ddL
8cc#X
8b-
8aJ
4g
=:|!
*>B
!LO:TX:a:i:t=G-raised-fourth
4.dd
8cc#X
12ddL
12cc#
12b-J
=6
8ddL
8cc#X
8b-
8aJ
4b-
=7
8cc#XL
8dd
8een
8ffJ
12ddL
12cc#
12b-J
=8
8ddL
8cc#X
8b-
8aJ
4g
=:|!
!!!End-Modulation
*-
